assets/img/model-printer.svg

<svg width="35" height="33" viewBox="0 0 35 33" fill="none" xmlns="http://www.w3.org/2000/svg">
<path d="M30.9066 30.1125H27.8816L24.8566 27.0875H9.86914L6.84414 30.1125H3.81913V12.1H30.7691V30.1125H30.9066ZM3.81913 6.04999C3.81913 4.39999 5.19414 3.02502 6.84414 3.02502H15.9191V9.07501H3.81913V6.04999ZM18.9441 9.07501V6.04999H30.9066V3.02502H18.9441V0H6.98163C3.68163 0 0.931641 2.74999 0.931641 6.04999V33H10.0066V29.975H24.9941V33H34.0691V9.07501H18.9441Z" fill="black"/>
<path d="M27.8816 21.0375H24.8566V24.0625H27.8816V21.0375Z" fill="black"/>
</svg>

<svg width="35" height="33" fill="none" xmlns="http://www.w3.org/2000/svg"><path d="M30.907 30.113h-3.025l-3.025-3.026H9.869l-3.025 3.026H3.82V12.1h26.95v18.013h.138ZM3.819 6.05c0-1.65 1.375-3.025 3.025-3.025h9.075v6.05H3.82V6.05Zm15.125 3.025V6.05h11.963V3.025H18.944V0H6.982c-3.3 0-6.05 2.75-6.05 6.05V33h9.075v-3.025h14.987V33h9.075V9.075H18.944Z" fill="#000"/><path d="M27.882 21.038h-3.025v3.024h3.025v-3.024Z" fill="#000"/></svg>
